public/images/logo.svg

<svg width="127" height="58" viewBox="0 0 127 58" fill="none" xmlns="http://www.w3.org/2000/svg">
<path d="M57.3615 9.64129L59.9972 0H88.8517L86.216 9.64129H67.0028L60.136 35.3052H50.4947L57.3615 9.64129ZM47.7896 9.64129L50.4253 0H40.784L38.1483 9.64129H47.7896Z" fill="#FF8F50"/>
<path d="M6.62619 48.113V49.8567H4.36082V57.6566H2.39925V49.8567H0.120651V48.113H6.62619ZM16.4636 57.6568L15.7701 55.6886H11.7612L11.0678 57.6568H9.04014L12.5539 48.113H14.9778L18.4916 57.6568H16.464H16.4636ZM12.3425 54.0308H15.1891L13.7691 49.982L12.3425 54.0308ZM20.8325 57.6568L24.5509 52.6768L20.938 48.113H23.3487L25.7264 51.2436L28.1041 48.113H30.5148L26.9019 52.6768L30.6203 57.6568H28.0973L25.7263 54.2818L23.3552 57.6568H20.8325ZM33.9988 57.6568V48.113H35.9802V57.6568H33.9988ZM45.9302 48.113V49.8567H43.6648V57.6566H41.7033V49.8567H39.4247V48.113H45.9302ZM53.6078 57.7889C50.8008 57.7889 48.7268 55.8735 48.7268 52.8816C48.7268 49.8831 50.8007 47.981 53.6078 47.981C56.4082 47.981 58.482 49.8831 58.482 52.8816C58.482 55.8735 56.4081 57.7889 53.6078 57.7889ZM53.6078 55.9726C55.2523 55.9726 56.5138 54.8168 56.5138 52.8817C56.5138 50.9531 55.2523 49.8039 53.6078 49.8039C51.9632 49.8039 50.7017 50.9531 50.7017 52.8817C50.7017 54.8168 51.9632 55.9726 53.6078 55.9726ZM68.6433 57.6568L67.9498 55.6886H63.9409L63.2474 57.6568H61.2198L64.7336 48.113H67.1575L70.6713 57.6568H68.6437H68.6433ZM64.5222 54.0308H67.3688L65.9488 49.982L64.5222 54.0308ZM78.1835 57.7889C75.4294 57.7889 73.4017 55.8868 73.4017 52.908C73.4017 49.8896 75.4755 47.981 78.2826 47.981C80.1253 47.981 81.6509 48.7934 82.4832 50.2266L80.7462 51.1512C80.2442 50.1738 79.346 49.7048 78.2826 49.7048C76.6315 49.7048 75.3898 50.8408 75.3898 52.8618C75.3898 54.8102 76.5522 56.0651 78.3553 56.0651C79.5771 56.0651 80.6999 55.4574 80.9707 54.0639H78.3619V52.4722H82.8465V57.6568H81.2878V56.3358C80.6736 57.2407 79.6431 57.7889 78.1835 57.7889ZM93.2388 57.6568L92.5453 55.6886H88.5365L87.843 57.6568H85.8154L89.3292 48.113H91.7531L95.2668 57.6568H93.2392H93.2388ZM89.1177 54.0308H91.9643L90.5443 49.982L89.1177 54.0308ZM104.278 49.8569H100.646V52.0232H103.783V53.747H100.646V57.6571H98.6514V48.1134H104.279L104.278 49.8569ZM114.308 57.6568L113.614 55.6886H109.605L108.912 57.6568H106.884L110.398 48.113H112.822L116.336 57.6568H114.308H114.308ZM110.186 54.0308H113.033L111.613 49.982L110.186 54.0308ZM126.879 48.113L123.742 53.0863V57.6568H121.754V53.1326L118.597 48.113H120.79L122.738 51.3625L124.693 48.113H126.879Z" fill="white"/>
</svg>

<svg xmlns="http://www.w3.org/2000/svg" width="127" height="58" fill="none"><path fill="#FF8F50" d="M57.362 9.641 59.997 0h28.855l-2.636 9.641H67.003l-6.867 25.664h-9.641zm-9.572 0L50.425 0h-9.641l-2.636 9.641z"/><path fill="#fff" d="M6.626 48.113v1.744H4.361v7.8H2.399v-7.8H.121v-1.744zm9.838 9.544-.694-1.968h-4.009l-.693 1.968H9.04l3.514-9.544h2.424l3.514 9.544zm-4.121-3.626h2.846l-1.42-4.049zm8.49 3.626 3.718-4.98-3.613-4.564h2.41l2.378 3.13 2.378-3.13h2.41l-3.612 4.564 3.718 4.98h-2.523l-2.37-3.375-2.372 3.375zm13.166 0v-9.544h1.981v9.544zm11.931-9.544v1.744h-2.265v7.8h-1.962v-7.8h-2.278v-1.744zm7.678 9.676c-2.807 0-4.881-1.916-4.881-4.907 0-2.999 2.074-4.901 4.88-4.901 2.801 0 4.875 1.902 4.875 4.9 0 2.992-2.074 4.908-4.874 4.908m0-1.816c1.644 0 2.906-1.156 2.906-3.091 0-1.929-1.262-3.078-2.906-3.078s-2.906 1.15-2.906 3.078c0 1.935 1.261 3.09 2.906 3.09m15.035 1.684-.693-1.968h-4.01l-.693 1.968H61.22l3.514-9.544h2.424l3.513 9.544zm-4.12-3.626h2.846l-1.42-4.049zm13.66 3.758c-2.754 0-4.781-1.902-4.781-4.881 0-3.018 2.073-4.927 4.88-4.927 1.843 0 3.369.812 4.201 2.246l-1.737.924c-.502-.977-1.4-1.446-2.463-1.446-1.651 0-2.893 1.136-2.893 3.157 0 1.948 1.162 3.203 2.965 3.203 1.222 0 2.345-.608 2.616-2.001h-2.61v-1.592h4.486v5.185h-1.56v-1.321c-.613.905-1.644 1.453-3.104 1.453m15.056-.132-.694-1.968h-4.008l-.694 1.968h-2.028l3.514-9.544h2.424l3.514 9.544zm-4.121-3.626h2.846l-1.42-4.049zm15.16-4.174h-3.632v2.166h3.137v1.724h-3.137v3.91h-1.995v-9.544h5.628zm10.03 7.8-.694-1.968h-4.009l-.693 1.968h-2.028l3.514-9.544h2.424l3.514 9.544zm-4.122-3.626h2.847l-1.42-4.049zm16.693-5.918-3.137 4.973v4.57h-1.988v-4.523l-3.157-5.02h2.193l1.948 3.25 1.955-3.25z"/></svg>
